X: 20473
M: 2/4
L: 1/16
K: Glyd
|: ef |\
g3a  gfed | g2g2 a2ga | b2b2 a2ga | b2ba gfed |\
efga gfed | g2g2 a2ga | b2b2 a2ga | b2g2g2 :|
|: z2 |\
d2c2 d2A2 | BABc d2AG | F2D2 E2DE | F2D2D2 :|


